packages/ffe-icons/icons/open/400/sm/edit_road.svg

<svg xmlns="http://www.w3.org/2000/svg" height="20" viewBox="0 -960 960 960" width="20"><path d="M660-504q-13.5 0-24.75-9T624-540v-192q0-15.3 10.289-25.65 10.29-10.35 25.5-10.35Q675-768 685.5-757.65 696-747.3 696-732v192q0 18-11.25 27T660-504ZM192-227.981v-503.727Q192-747 202.289-757.5q10.29-10.5 25.5-10.5Q243-768 253.5-757.656q10.5 10.345 10.5 25.637v503.727Q264-213 253.711-202.5q-10.29 10.5-25.5 10.5Q213-192 202.5-202.344 192-212.689 192-227.981Zm216-431.931v-71.825Q408-747 418.289-757.5q10.29-10.5 25.5-10.5Q459-768 469.5-757.675 480-747.35 480-732.088v71.825Q480-645 469.711-634.5q-10.29 10.5-25.5 10.5Q429-624 418.5-634.325 408-644.65 408-659.912Zm0 216v-71.825Q408-531 418.289-541.5q10.29-10.5 25.5-10.5Q459-552 469.5-541.675 480-531.35 480-516.088v71.825Q480-429 469.711-418.5q-10.29 10.5-25.5 10.5Q429-408 418.5-418.325 408-428.65 408-443.912Zm0 216v-71.825Q408-315 418.289-325.5q10.29-10.5 25.5-10.5Q459-336 469.5-325.675 480-315.35 480-300.088v71.825Q480-213 469.711-202.5q-10.29 10.5-25.5 10.5Q429-192 418.5-202.325 408-212.65 408-227.912ZM612-192q-15.3 0-25.65-10.35Q576-212.7 576-228v-62.432q0-7.568 3-14.068t8-11.5l199-198q7.258-7.412 16.129-10.706Q811-528 819.759-528q9.556 0 18.315 3.5Q846.833-521 854-514l44 45q6.588 7.258 10.294 16.129Q912-444 912-435.241q0 8.76-3.294 17.917Q905.412-408.167 898-401L700-203q-5 5-11.5 8t-14.068 3H612Zm252-243-45-45 45 45ZM624-240h45l115-115-22-23-22-22-116 115v45Zm138-138-22-22 44 45-22-23Z"/></svg>

<svg xmlns="http://www.w3.org/2000/svg" height="20" viewBox="0 -960 960 960" width="20"><path d="M660-504q-13.5 0-24.75-9T624-540v-192q0-15.3 10.29-25.65Q644.58-768 659.79-768t25.71 10.35Q696-747.3 696-732v192q0 18-11.25 27T660-504ZM192-227.98v-503.73q0-15.29 10.29-25.79t25.5-10.5q15.21 0 25.71 10.34 10.5 10.35 10.5 25.64v503.73q0 15.29-10.29 25.79t-25.5 10.5q-15.21 0-25.71-10.34-10.5-10.35-10.5-25.64Zm216-431.93v-71.83q0-15.26 10.29-25.76 10.29-10.5 25.5-10.5t25.71 10.32q10.5 10.33 10.5 25.59v71.83q0 15.26-10.29 25.76-10.29 10.5-25.5 10.5t-25.71-10.32Q408-644.65 408-659.91Zm0 216v-71.83q0-15.26 10.29-25.76 10.29-10.5 25.5-10.5t25.71 10.32q10.5 10.33 10.5 25.59v71.83q0 15.26-10.29 25.76-10.29 10.5-25.5 10.5t-25.71-10.32Q408-428.65 408-443.91Zm0 216v-71.83q0-15.26 10.29-25.76 10.29-10.5 25.5-10.5t25.71 10.32q10.5 10.33 10.5 25.59v71.83q0 15.26-10.29 25.76-10.29 10.5-25.5 10.5t-25.71-10.32Q408-212.65 408-227.91ZM612-192q-15.3 0-25.65-10.35Q576-212.7 576-228v-62.43q0-7.57 3-14.07t8-11.5l199-198q7.26-7.41 16.13-10.71Q811-528 819.76-528q9.55 0 18.31 3.5Q846.83-521 854-514l44 45q6.59 7.26 10.29 16.13Q912-444 912-435.24t-3.29 17.92q-3.3 9.15-10.71 16.32L700-203q-5 5-11.5 8t-14.07 3H612Zm252-243-45-45 45 45ZM624-240h45l115-115-22-23-22-22-116 115v45Zm138-138-22-22 44 45-22-23Z"/></svg>
